X:174
T:Lucy Campbell (reel) 
B:CRE2.185 (Luighseach ChaimbÃÂÃÂÃÂÃÂ©al)
F:file ID: cre.2/174lucy_c
N:A "florid" setting but Breathnach doesn't say whose.
R:reel
M:C
Q:180
K:D
dB|:ADDD ADBD|ADFA Beed|AD (3DDD A2Bc|dBAF ADDD:|
dBAB dfeA|dBAc BEEA|dBAB dfeA|dBAF ADDD|
dBAB dfeA|dBB2 fBB2|dBAB d2 (3gfe|dBAF ADDD||
(3fga af defd|(3AcA fd edBd|(3fga af defc|dBAF ADDD|
(3AcA fd Adfd|(3AcA fd edBd|(3fga af afed|(3efg fe dBAB||
dgf/g/f dfeA|dgf/g/f afeA|dgf/g/f dfec|dBAF ADDD|
dgf/g/f dfeA|dgf/g/f afef|g2 (3gfe f2 (3gfe|dBAF ADHD2|]

%%%

